Papirus-nordic/48x48/places/folder-red-videos-open.svg

<svg xmlns="http://www.w3.org/2000/svg" width="48" height="48" version="1"><rect width="40" height="26" x="4" y="17" rx="2" ry="2" opacity=".2"/><path d="M4 34c0 1.108.892 2 2 2h36c1.108 0 2-.892 2-2V12c0-1.108-.892-2-2-2H22V8c0-1.108-.892-2-2-2H6c-1.108 0-2 .892-2 2" fill="#ae4f58"/><rect width="40" height="22" x="4" y="19" rx="2" ry="2" opacity=".2"/><rect width="36" height="16" x="6" y="13" rx="2" ry="2" fill="#e4e4e4"/><rect width="40" height="22" x="4" y="20" rx="2" ry="2" fill="#bf616a"/><path d="M6 6c-1.108 0-2 .892-2 2v1c0-1.108.892-2 2-2h14c1.108 0 2 .892 2 2V8c0-1.108-.892-2-2-2zm16 4v1h20c1.108 0 2 .892 2 2v-1c0-1.108-.892-2-2-2z" opacity=".1" fill="#fff"/><path d="M18 26c-.554 0-1 .446-1 1v8c0 .554.446 1 1 1h9c.554 0 1-.446 1-1v-8c0-.554-.446-1-1-1zm10 5l4 4v-7.5z" fill="#974a4d"/></svg>

<svg xmlns="http://www.w3.org/2000/svg" width="48" height="48" version="1">
 <rect style="opacity:0.2" width="40" height="26" x="4" y="17" rx="2" ry="2"/>
 <path style="fill:#ae4f58" d="M 4,34 C 4,35.108 4.892,36 6,36 H 42 C 43.108,36 44,35.108 44,34 V 12 C 44,10.892 43.108,10 42,10 H 24 C 21,10 20,6 17,6 H 6 C 4.892,6 4,6.892 4,8"/>
 <rect style="opacity:0.2" width="40" height="22" x="4" y="19" rx="2" ry="2"/>
 <rect style="fill:#e4e4e4" width="36" height="16" x="6" y="13" rx="2" ry="2"/>
 <rect style="fill:#bf616a" width="40" height="22" x="4" y="20" rx="2" ry="2"/>
 <path style="opacity:0.1;fill:#ffffff" d="M 6,6 C 4.892,6 4,6.892 4,8 V 9 C 4,7.892 4.892,7 6,7 H 17 C 20,7 21,11 24,11 H 42 C 43.108,11 44,11.892 44,13 V 12 C 44,10.892 43.108,10 42,10 H 24 C 21,10 20,6 17,6 Z"/>
 <path style="fill:#974a4d" d="M 18,26 C 17.446,26 17,26.446 17,27 V 35 C 17,35.554 17.446,36 18,36 H 27 C 27.554,36 28,35.554 28,35 V 31 27 C 28,26.446 27.554,26 27,26 Z M 28,31 32,35 V 27.5 Z"/>
</svg>
